Sources/FrostedUI/Resources/Icons.xcassets/moon32.imageset/moon-32.svg

<svg width="32" height="32" viewBox="0 0 32 32" fill="none" xmlns="http://www.w3.org/2000/svg" data-fui-icon="true">
  <path
    d="M14.5156 1.07812C14.7682 1.08866 15.0018 1.22667 15.1318 1.44922C15.2806 1.70405 15.267 2.02342 15.0957 2.26367C12.1725 6.36398 12.549 12.0928 16.2275 15.7715C19.906 19.4499 25.6349 19.8265 29.7354 16.9033L29.8281 16.8457C30.0535 16.7303 30.3259 16.7361 30.5488 16.8662C30.8034 17.015 30.947 17.2995 30.916 17.5928C30.1198 25.1281 23.7471 30.9994 16.001 31C7.84581 31 1.20937 24.4914 1.00391 16.3857L0.999023 15.999C0.999305 8.25316 6.87011 1.87877 14.4053 1.08203L14.5156 1.07812ZM12.9922 2.83691C6.9845 4.20395 2.49928 9.57719 2.49902 15.999C2.49921 23.4551 8.54485 29.5 16.001 29.5L16.3262 29.4961C22.6037 29.3471 27.818 24.9115 29.1611 19.0049C24.8009 21.2606 19.3494 20.6676 15.5684 17.2158L15.167 16.832C11.3783 13.0432 10.6554 7.35428 12.9922 2.83691Z"
    fill="currentColor"
  />
</svg>

<svg xmlns="http://www.w3.org/2000/svg" width="32" height="32" fill="none" data-fui-icon="true" viewBox="0 0 32 32"><path fill="currentColor" d="M14.516 1.078a.75.75 0 0 1 .58 1.186c-2.924 4.1-2.547 9.829 1.131 13.508s9.408 4.054 13.508 1.131l.093-.057a.752.752 0 0 1 1.088.747C30.12 25.128 23.747 30.999 16.001 31 7.846 31 1.209 24.491 1.004 16.386l-.005-.387c0-7.746 5.871-14.12 13.406-14.917zm-1.524 1.759C6.984 4.204 2.5 9.577 2.5 15.999c0 7.456 6.046 13.501 13.502 13.501l.325-.004c6.278-.149 11.492-4.584 12.835-10.491-4.36 2.256-9.812 1.663-13.593-1.79l-.401-.383c-3.789-3.789-4.512-9.478-2.175-13.995"/></svg>
